res/img/icon.svg

<svg width="184" height="220" viewBox="0 0 184 220" fill="none" xmlns="http://www.w3.org/2000/svg">
<g filter="url(#filter0_d)">
<path d="M54.4759 197.035C65.083 202.724 77.1121 206 89.818 206C102.524 206 114.553 202.724 125.16 197.035V185.724H54.4759V197.035Z" fill="#D29B6E"/>
<path d="M157.977 109.686H155.453V53.9255H24.1832V109.686H21.6588C14.6878 109.686 9.03662 115.359 9.03662 122.358C9.03662 129.357 14.6878 135.031 21.6588 135.031H24.4382C27.0242 169.049 55.2734 195.86 89.8179 195.86C124.362 195.86 152.612 169.049 155.198 135.031H157.977C164.948 135.031 170.599 129.357 170.599 122.358C170.599 115.36 164.949 109.686 157.977 109.686Z" fill="#F5B97D"/>
<path d="M135.258 64.0638V53.9255H24.1831V109.686H22.3792C15.7765 109.686 9.76012 114.455 9.10238 121.051C8.34548 128.636 14.2584 135.031 21.6593 135.031H24.4387C27.0247 169.049 55.2739 195.86 89.8184 195.86C93.2722 195.86 96.6398 195.522 99.9476 195.005C68.4898 190.131 44.3786 162.91 44.3786 129.961V94.4768C44.3786 83.2787 53.4201 74.2003 64.5741 74.2003H125.16C130.737 74.2021 135.258 69.6635 135.258 64.0638Z" fill="#E3AA75"/>
<path d="M59.5248 125.334C56.7343 125.334 54.4759 123.064 54.4759 120.265V115.196C54.4759 112.396 56.7343 110.126 59.5248 110.126C62.3152 110.126 64.5736 112.396 64.5736 115.196V120.265C64.5736 123.065 62.3158 125.334 59.5248 125.334Z" fill="#5A4650"/>
<path d="M120.111 125.334C117.321 125.334 115.062 123.064 115.062 120.265V115.196C115.062 112.396 117.321 110.126 120.111 110.126C122.902 110.126 125.16 112.396 125.16 115.196V120.265C125.16 123.065 122.902 125.334 120.111 125.334Z" fill="#5A4650"/>
<path d="M64.5735 104.617H54.4758C51.6853 104.617 49.4269 102.347 49.4269 99.548C49.4269 96.7487 51.6853 94.4788 54.4758 94.4788H64.5735C67.364 94.4788 69.6224 96.7487 69.6224 99.548C69.6224 102.347 67.3646 104.617 64.5735 104.617Z" fill="#6E5A64"/>
<path d="M125.16 104.617H115.062C112.272 104.617 110.013 102.347 110.013 99.548C110.013 96.7487 112.272 94.4788 115.062 94.4788H125.16C127.95 94.4788 130.209 96.7487 130.209 99.548C130.209 102.347 127.95 104.617 125.16 104.617Z" fill="#6E5A64"/>
<path d="M69.3047 143.118C67.7152 143.118 67.0864 144.516 67.3506 146.09C68.9906 155.85 78.425 163.334 89.8179 163.334C101.211 163.334 110.645 155.85 112.285 146.09C112.549 144.516 110.816 143.118 109.226 143.118H69.3047Z" fill="white"/>
<path d="M146.386 43.7879H33.2494C17.8337 43.7879 6.01765 57.5392 8.27787 72.8492L14.0855 112.191L25.4211 110.785C30.4805 110.157 34.281 105.842 34.281 100.723V74.2022C34.281 68.6025 38.8021 64.0639 44.3787 64.0639H135.258C140.834 64.0639 145.356 68.6025 145.356 74.2022V100.723C145.356 105.841 149.156 110.157 154.215 110.784L165.551 112.19L171.359 72.8486C173.618 57.5385 161.802 43.7879 146.386 43.7879Z" fill="#5A4650"/>
<path d="M157.823 9.56324C156.853 6.54451 153.361 5.07904 150.601 6.62427C145.342 9.57128 135.564 13.3704 120.111 13.3704H69.6218C50.1032 13.3704 34.2797 29.2567 34.2797 48.8544C34.2797 57.2533 41.061 64.0618 49.4264 64.0618H130.208C149.181 64.0618 168.154 41.6928 157.823 9.56324Z" fill="#64505A"/>
<path d="M64.3352 31.0439C64.4116 38.2315 70.7519 43.7879 77.9108 43.7879H146.386C150.019 43.7879 153.441 44.5744 156.537 45.9428C161.136 36.5694 162.493 24.0758 157.817 9.54611C156.85 6.54222 153.361 5.07985 150.616 6.61951C145.359 9.56775 135.578 13.3736 120.111 13.3736H69.6218C69.3065 13.5598 68.9493 13.77 68.634 13.9561C65.9039 18.9888 64.3334 24.7461 64.3334 30.8807C64.334 30.9345 64.3346 30.9889 64.3352 31.0439Z" fill="#6E5A64"/>
</g>
<defs>
<filter id="filter0_d" x="0" y="0" width="183.636" height="220" filterUnits="userSpaceOnUse" color-interpolation-filters="sRGB">
<feFlood flood-opacity="0" result="BackgroundImageFix"/>
<feColorMatrix in="SourceAlpha" type="matrix" values="0 0 0 0 0 0 0 0 0 0 0 0 0 0 0 0 0 0 127 0"/>
<feOffset dx="2" dy="4"/>
<feGaussianBlur stdDeviation="5"/>
<feColorMatrix type="matrix" values="0 0 0 0 0 0 0 0 0 0 0 0 0 0 0 0 0 0 0.4 0"/>
<feBlend mode="normal" in2="BackgroundImageFix" result="effect1_dropShadow"/>
<feBlend mode="normal" in="SourceGraphic" in2="effect1_dropShadow" result="shape"/>
</filter>
</defs>
</svg>

<svg xmlns="http://www.w3.org/2000/svg" width="184" height="220" fill="none" xmlns:v="https://vecta.io/nano"><g filter="url(#A)"><path d="M54.476 197.035C65.083 202.724 77.112 206 89.818 206s24.735-3.276 35.342-8.965v-11.311H54.476v11.311z" fill="#d29b6e"/><path d="M157.977 109.686h-2.524V53.926H24.183v55.761h-2.524c-6.971 0-12.622 5.673-12.622 12.672s5.651 12.673 12.622 12.673h2.779c2.586 34.018 30.835 60.829 65.38 60.829s62.794-26.811 65.38-60.829h2.779c6.971 0 12.622-5.674 12.622-12.673s-5.65-12.672-12.622-12.672z" fill="#f5b97d"/><path d="M135.258 64.064V53.926H24.183v55.761h-1.804c-6.603 0-12.619 4.769-13.277 11.365-.757 7.585 5.156 13.98 12.557 13.98h2.779c2.586 34.018 30.835 60.829 65.38 60.829 3.454 0 6.821-.338 10.129-.855-31.458-4.874-55.569-32.095-55.569-65.044V94.477c0-11.198 9.042-20.276 20.196-20.276h60.586c5.577.002 10.098-4.537 10.098-10.136z" fill="#e3aa75"/><path d="M59.525 125.334a5.06 5.06 0 0 1-5.049-5.069v-5.069a5.06 5.06 0 0 1 5.049-5.07 5.06 5.06 0 0 1 5.049 5.07v5.069c0 2.8-2.258 5.069-5.049 5.069z" fill="#5a4650"/><path d="M120.111 125.334a5.06 5.06 0 0 1-5.049-5.069v-5.069a5.06 5.06 0 0 1 5.049-5.07c2.791 0 5.049 2.27 5.049 5.07v5.069c0 2.8-2.258 5.069-5.049 5.069z" fill="#5a4650"/><path d="M64.573 104.617H54.476a5.06 5.06 0 0 1-5.049-5.069c0-2.799 2.258-5.069 5.049-5.069h10.098c2.791 0 5.049 2.27 5.049 5.069s-2.258 5.069-5.049 5.069z" fill="#6e5a64"/><path d="M125.16 104.617h-10.098a5.06 5.06 0 1 1 0-10.138h10.098a5.06 5.06 0 1 1 0 10.138z" fill="#6e5a64"/><path d="M69.305 143.118c-1.59 0-2.218 1.398-1.954 2.972 1.64 9.76 11.074 17.244 22.467 17.244s20.827-7.484 22.467-17.244c.264-1.574-1.469-2.972-3.059-2.972H69.305z" fill="#fff"/><path d="M146.386 43.788H33.249c-15.416 0-27.232 13.751-24.972 29.061l5.808 39.342 11.336-1.406c5.059-.628 8.86-4.943 8.86-10.062V74.202c0-5.6 4.521-10.138 10.098-10.138h90.879c5.576 0 10.098 4.539 10.098 10.138v26.521c0 5.118 3.8 9.434 8.859 10.061l11.336 1.406 5.808-39.341c2.259-15.31-9.557-29.061-24.973-29.061z" fill="#5a4650"/><path d="M157.823 9.563c-.97-3.019-4.462-4.484-7.222-2.939-5.259 2.947-15.037 6.746-30.49 6.746H69.622c-19.519 0-35.342 15.886-35.342 35.484 0 8.399 6.781 15.207 15.147 15.207h80.782c18.973 0 37.946-22.369 27.615-54.499z" fill="#64505a"/><path d="M64.335 31.044c.076 7.188 6.417 12.744 13.576 12.744h68.475c3.633 0 7.055.786 10.151 2.155 4.599-9.373 5.956-21.867 1.28-36.397-.967-3.004-4.456-4.466-7.201-2.927-5.257 2.948-15.038 6.754-30.505 6.754H69.622l-.988.582c-2.73 5.033-4.301 10.79-4.301 16.925l.002.163z" fill="#6e5a64"/></g><defs><filter id="A" x="0" y="0" width="183.636" height="220" filterUnits="userSpaceOnUse" color-interpolation-filters="sRGB"><feFlood flood-opacity="0" result="A"/><feColorMatrix in="SourceAlpha" values="0 0 0 0 0 0 0 0 0 0 0 0 0 0 0 0 0 0 127 0"/><feOffset dx="2" dy="4"/><feGaussianBlur stdDeviation="5"/><feColorMatrix values="0 0 0 0 0 0 0 0 0 0 0 0 0 0 0 0 0 0 0.4 0"/><feBlend in2="A"/><feBlend in="SourceGraphic"/></filter></defs></svg>
